X: 10443
T: PINKELL'S STRATHSPEY
C:
%R: strathspey, shottish
B: Elias Howe "The Musician's Companion" Part 1 1842 p.44 #3
S: http://imslp.org/wiki/The_Musician's_Companion_(Howe,_Elias)
Z: 2015 John Chambers <jc:trillian.mit.edu>
M: C|
L: 1/8
K: Bb
% - - - - - - - - - - - - - - - - - - - - - - - - -
|:\
D>GG>F D>FF>G | B>cd>c B>GG>B |\
D>GG>F D>Ff2 | d>Bc>d B2B2 ::\
d<ff2 d<gg2 | d>cB>d cBG2 |
d<ff2 d<gg2 | d>Bc>d B2B2 |\
d<ff2 d<gg2 | d>cB>d c>BG>F |\
D>GG>F D<Ff2 | d>Bc>d B2B2 :|
% - - - - - - - - - - - - - - - - - - - - - - - - -


